apps/docs/public/img/icons/menu/reference-realtime.svg

<svg width="15" height="15" viewBox="0 0 15 15" fill="none" xmlns="http://www.w3.org/2000/svg">
<path d="M3.55762 4.52344L8.07535 14.855L9.25221 10.2971L14.0002 9.11523L3.55762 4.52344Z" fill="url(#paint0_linear_657_71989)"/>
<path fill-rule="evenodd" clip-rule="evenodd" d="M3.26611 4.65088L3.68592 4.23193L14.1285 8.82373L14.0773 9.42405L9.51321 10.5601L8.38374 14.9345L7.78384 14.9824L3.26611 4.65088ZM4.17619 5.14302L7.99779 13.8826L8.94415 10.2174L9.17549 9.98805L13.019 9.03136L4.17619 5.14302Z" fill="url(#paint1_linear_657_71989)"/>
<path fill-rule="evenodd" clip-rule="evenodd" d="M0.594723 1.05995L2.72567 3.25604L2.26875 3.69941L0.137801 1.50332L0.594723 1.05995Z" fill="url(#paint2_linear_657_71989)"/>
<path fill-rule="evenodd" clip-rule="evenodd" d="M3.86235 3.33325V0.984375L4.49902 0.984375V3.33325H3.86235Z" fill="url(#paint3_linear_657_71989)"/>
<path fill-rule="evenodd" clip-rule="evenodd" d="M0.0522462 4.70268H2.41797V5.33936H0.0522461L0.0522462 4.70268Z" fill="url(#paint4_linear_657_71989)"/>
<defs>
<linearGradient id="paint0_linear_657_71989" x1="-2.60622" y1="0.984375" x2="19.3907" y2="0.984374" gradientUnits="userSpaceOnUse">
<stop stop-color="#F4FFFA"/>
<stop offset="1" stop-color="#D8FFEC" stop-opacity="0.6"/>
</linearGradient>
<linearGradient id="paint1_linear_657_71989" x1="-2.60622" y1="0.984375" x2="19.3907" y2="0.984374" gradientUnits="userSpaceOnUse">
<stop stop-color="#F4FFFA"/>
<stop offset="1" stop-color="#D8FFEC" stop-opacity="0.6"/>
</linearGradient>
<linearGradient id="paint2_linear_657_71989" x1="-2.60622" y1="0.984375" x2="19.3907" y2="0.984374" gradientUnits="userSpaceOnUse">
<stop stop-color="#F4FFFA"/>
<stop offset="1" stop-color="#D8FFEC" stop-opacity="0.6"/>
</linearGradient>
<linearGradient id="paint3_linear_657_71989" x1="-2.60622" y1="0.984375" x2="19.3907" y2="0.984374" gradientUnits="userSpaceOnUse">
<stop stop-color="#F4FFFA"/>
<stop offset="1" stop-color="#D8FFEC" stop-opacity="0.6"/>
</linearGradient>
<linearGradient id="paint4_linear_657_71989" x1="-2.60622" y1="0.984375" x2="19.3907" y2="0.984374" gradientUnits="userSpaceOnUse">
<stop stop-color="#F4FFFA"/>
<stop offset="1" stop-color="#D8FFEC" stop-opacity="0.6"/>
</linearGradient>
</defs>
</svg>

<svg width="15" height="15" fill="none" xmlns="http://www.w3.org/2000/svg"><path d="m3.558 4.523 4.517 10.332 1.177-4.558L14 9.115 3.558 4.523Z" fill="url(#a)"/><path fill-rule="evenodd" clip-rule="evenodd" d="m3.266 4.65.42-.418 10.443 4.592-.052.6-4.564 1.136-1.13 4.374-.6.048L3.267 4.651Zm.91.493 3.822 8.74.946-3.666.231-.229 3.844-.957-8.843-3.888Z" fill="url(#b)"/><path fill-rule="evenodd" clip-rule="evenodd" d="m.595 1.06 2.13 2.196-.456.443L.138 1.503l.457-.443Z" fill="url(#c)"/><path fill-rule="evenodd" clip-rule="evenodd" d="M3.862 3.333V.984H4.5v2.35h-.637Z" fill="url(#d)"/><path fill-rule="evenodd" clip-rule="evenodd" d="M.052 4.703h2.366v.636H.052v-.636Z" fill="url(#e)"/><defs><linearGradient id="a" x1="-2.606" y1=".984" x2="19.391" y2=".984" gradientUnits="userSpaceOnUse"><stop stop-color="#F4FFFA"/><stop offset="1" stop-color="#D8FFEC" stop-opacity=".6"/></linearGradient><linearGradient id="b" x1="-2.606" y1=".984" x2="19.391" y2=".984" gradientUnits="userSpaceOnUse"><stop stop-color="#F4FFFA"/><stop offset="1" stop-color="#D8FFEC" stop-opacity=".6"/></linearGradient><linearGradient id="c" x1="-2.606" y1=".984" x2="19.391" y2=".984" gradientUnits="userSpaceOnUse"><stop stop-color="#F4FFFA"/><stop offset="1" stop-color="#D8FFEC" stop-opacity=".6"/></linearGradient><linearGradient id="d" x1="-2.606" y1=".984" x2="19.391" y2=".984" gradientUnits="userSpaceOnUse"><stop stop-color="#F4FFFA"/><stop offset="1" stop-color="#D8FFEC" stop-opacity=".6"/></linearGradient><linearGradient id="e" x1="-2.606" y1=".984" x2="19.391" y2=".984" gradientUnits="userSpaceOnUse"><stop stop-color="#F4FFFA"/><stop offset="1" stop-color="#D8FFEC" stop-opacity=".6"/></linearGradient></defs></svg>
